X: 19549
T: James D Law
R: reel
M: 4/4
K: Fdorian
F|:EB,CA, G,B,B,c|BEcE DFFd|(3edc (3BAG (3cBA (3GFE|1 (3DCB, (3AGF GEEF:|2 (3DCB, (3AGF GEEd||
eBcG AFF=e|fdec dBBd|eBcG AFGE|DFBA GEEd|
eGBe cAA=e|fBdf dBBG|AcFA GBEC|DB,AF GEE2||

